src/assets/filled/Computing.svg

<svg width="24" height="24" viewBox="0 0 24 24"  xmlns="http://www.w3.org/2000/svg">
<path d="M20.9499 4.12988L4.12988 20.9499C5.07988 21.6399 6.31988 21.9999 7.80988 21.9999H16.1899C19.8299 21.9999 21.9999 19.8299 21.9999 16.1899V7.80988C21.9999 6.31988 21.6399 5.07988 20.9499 4.12988ZM18.4999 16.2499H16.8099V17.9999C16.8099 18.4099 16.4699 18.7499 16.0599 18.7499C15.6499 18.7499 15.3099 18.4099 15.3099 17.9999V16.2499H13.4999C13.0899 16.2499 12.7499 15.9099 12.7499 15.4999C12.7499 15.0899 13.0899 14.7499 13.4999 14.7499H15.3099V12.9999C15.3099 12.5899 15.6499 12.2499 16.0599 12.2499C16.4699 12.2499 16.8099 12.5899 16.8099 12.9999V14.7499H18.4999C18.9099 14.7499 19.2499 15.0899 19.2499 15.4999C19.2499 15.9099 18.9099 16.2499 18.4999 16.2499Z" />
<path d="M16.19 2H7.81C4.17 2 2 4.17 2 7.81V16.19C2 17.68 2.36 18.92 3.05 19.87L19.87 3.05C18.92 2.36 17.68 2 16.19 2ZM10.5 8.25H5.5C5.09 8.25 4.75 7.91 4.75 7.5C4.75 7.09 5.09 6.75 5.5 6.75H10.5C10.91 6.75 11.25 7.09 11.25 7.5C11.25 7.91 10.91 8.25 10.5 8.25Z" />
</svg>

<?xml version="1.0" encoding="UTF-8"?>
<svg width="24" height="24" viewBox="0 0 24 24" xmlns="http://www.w3.org/2000/svg">
 <path d="m20.95 4.1299-16.82 16.82c0.95 0.69 2.19 1.05 3.68 1.05h8.38c3.64 0 5.81-2.17 5.81-5.81v-8.38c0-1.49-0.36-2.73-1.05-3.68zm-2.45 12.12h-1.69v1.75c0 0.41-0.34 0.75-0.75 0.75s-0.75-0.34-0.75-0.75v-1.75h-1.81c-0.41 0-0.75-0.34-0.75-0.75s0.34-0.75 0.75-0.75h1.81v-1.75c0-0.41 0.34-0.75 0.75-0.75s0.75 0.34 0.75 0.75v1.75h1.69c0.41 0 0.75 0.34 0.75 0.75s-0.34 0.75-0.75 0.75z"/>
 <path d="m16.19 2h-8.38c-3.64 0-5.81 2.17-5.81 5.81v8.38c0 1.49 0.36 2.73 1.05 3.68l16.82-16.82c-0.95-0.69-2.19-1.05-3.68-1.05zm-5.69 6.25h-5c-0.41 0-0.75-0.34-0.75-0.75s0.34-0.75 0.75-0.75h5c0.41 0 0.75 0.34 0.75 0.75s-0.34 0.75-0.75 0.75z"/>
</svg>
